9/img/vk.svg

<svg width="18" height="11" viewBox="0 0 18 11" fill="none" xmlns="http://www.w3.org/2000/svg">
<path fill-rule="evenodd" clip-rule="evenodd" d="M17.5875 0.711C17.712 0.3015 17.5875 0 16.9913 0H15.0225C14.5215 0 14.2905 0.26025 14.1652 0.5475C14.1652 0.5475 13.164 2.9445 11.7458 4.5015C11.2867 4.953 11.0782 5.09625 10.8278 5.09625C10.7025 5.09625 10.5142 4.953 10.5142 4.54275V0.711C10.5142 0.219 10.3763 0 9.95925 0H6.86325C6.5505 0 6.36225 0.228 6.36225 0.44475C6.36225 0.9105 7.07175 1.0185 7.1445 2.3295V5.178C7.1445 5.80275 7.02975 5.916 6.77925 5.916C6.11175 5.916 4.488 3.50775 3.52425 0.75225C3.3375 0.216 3.1485 0 2.64525 0H0.675C0.1125 0 0 0.26025 0 0.5475C0 1.059 0.6675 3.6 3.10875 6.96075C4.73625 9.25575 7.0275 10.5 9.11475 10.5C10.3665 10.5 10.521 10.224 10.521 9.74775V8.013C10.521 7.46025 10.6395 7.35 11.0363 7.35C11.3287 7.35 11.829 7.494 12.9975 8.60025C14.3325 9.912 14.5523 10.5 15.3038 10.5H17.2725C17.835 10.5 18.117 10.224 17.955 9.678C17.7765 9.135 17.139 8.34675 16.2938 7.4115C15.8348 6.879 15.1463 6.30525 14.937 6.018C14.6453 5.64975 14.7285 5.4855 14.937 5.15775C14.937 5.15775 17.337 1.83825 17.5868 0.711H17.5875Z" fill="#D22856"/>
</svg>

<svg width="18" height="11" fill="none" xmlns="http://www.w3.org/2000/svg"><path fill-rule="evenodd" clip-rule="evenodd" d="M17.587.711c.125-.41 0-.711-.596-.711h-1.968c-.502 0-.732.26-.858.547 0 0-1.001 2.397-2.42 3.955-.458.451-.667.594-.917.594-.125 0-.314-.143-.314-.553V.71c0-.492-.138-.711-.555-.711H6.863c-.313 0-.5.228-.5.445 0 .465.709.573.781 1.884v2.849c0 .625-.114.738-.365.738-.667 0-2.291-2.408-3.255-5.164C3.337.216 3.148 0 2.645 0H.675C.112 0 0 .26 0 .547 0 1.06.667 3.6 3.109 6.962 4.736 9.256 7.027 10.5 9.115 10.5c1.252 0 1.406-.276 1.406-.752V8.013c0-.553.118-.663.515-.663.293 0 .793.144 1.962 1.25 1.335 1.312 1.554 1.9 2.306 1.9h1.969c.562 0 .844-.276.682-.822-.178-.543-.816-1.331-1.661-2.267-.46-.532-1.148-1.106-1.357-1.393-.292-.368-.208-.532 0-.86 0 0 2.4-3.32 2.65-4.447Z" fill="#D22856"/></svg>
